src/custom/assets/cow-swap/check.svg

<svg fill="none" height="24" viewBox="0 0 24 24" width="24" xmlns="http://www.w3.org/2000/svg"><g fill="#ff5722"><path d="m12 3c-1.1819 0-2.35222.23279-3.44415.68508-1.09193.4523-2.08408 1.11523-2.91981 1.95096s-1.49866 1.82788-1.95096 2.91981c-.45229 1.09193-.68508 2.26225-.68508 3.44415s.23279 2.3522.68508 3.4442c.4523 1.0919 1.11523 2.084 1.95096 2.9198.83573.8357 1.82788 1.4986 2.91981 1.9509s2.26225.6851 3.44415.6851 2.3522-.2328 3.4442-.6851c1.0919-.4523 2.084-1.1152 2.9198-1.9509.8357-.8358 1.4986-1.8279 1.9509-2.9198.4523-1.092.6851-2.2623.6851-3.4442s-.2328-2.35222-.6851-3.44415-1.1152-2.08408-1.9509-2.91981c-.8358-.83573-1.8279-1.49866-2.9198-1.95096-1.092-.45229-2.2623-.68508-3.4442-.68508z" opacity=".2"/><path d="m11.9999 22c-5.49996 0-9.99996-4.5-9.99996-10s4.5-10 9.99996-10c5.5 0 10 4.5 10 10s-4.5 10-10 10zm0-18c-4.39996 0-7.99996 3.6-7.99996 8s3.6 8 7.99996 8c4.4 0 8-3.6 8-8s-3.6-8-8-8z"/><path d="m9.99993 17.3999-3.7-3.7 1.4-1.4 2.3 2.3 6.29997-6.29997 1.4 1.4z"/></g></svg>

<svg width="24" height="24" viewBox="0 0 24 24" fill="none" xmlns="http://www.w3.org/2000/svg">
<path opacity="0.2" d="M12 3C10.8181 3 9.64778 3.23279 8.55585 3.68508C7.46392 4.13738 6.47177 4.80031 5.63604 5.63604C4.80031 6.47177 4.13738 7.46392 3.68508 8.55585C3.23279 9.64778 3 10.8181 3 12C3 13.1819 3.23279 14.3522 3.68508 15.4442C4.13738 16.5361 4.80031 17.5282 5.63604 18.364C6.47177 19.1997 7.46392 19.8626 8.55585 20.3149C9.64778 20.7672 10.8181 21 12 21C13.1819 21 14.3522 20.7672 15.4442 20.3149C16.5361 19.8626 17.5282 19.1997 18.364 18.364C19.1997 17.5282 19.8626 16.5361 20.3149 15.4442C20.7672 14.3522 21 13.1819 21 12C21 10.8181 20.7672 9.64778 20.3149 8.55585C19.8626 7.46392 19.1997 6.47177 18.364 5.63604C17.5282 4.80031 16.5361 4.13738 15.4442 3.68508C14.3522 3.23279 13.1819 3 12 3Z" fill="#ff5722"/>
<path d="M11.9999 22C6.49994 22 1.99994 17.5 1.99994 12C1.99994 6.5 6.49994 2 11.9999 2C17.4999 2 21.9999 6.5 21.9999 12C21.9999 17.5 17.4999 22 11.9999 22ZM11.9999 4C7.59994 4 3.99994 7.6 3.99994 12C3.99994 16.4 7.59994 20 11.9999 20C16.3999 20 19.9999 16.4 19.9999 12C19.9999 7.6 16.3999 4 11.9999 4Z" fill="#ff5722"/>
<path d="M9.99993 17.3999L6.29993 13.6999L7.69993 12.2999L9.99993 14.5999L16.2999 8.29993L17.6999 9.69993L9.99993 17.3999Z" fill="#ff5722"/>
</svg>
